!!!!SEGMENT: pl-wtm--670-sp-3678--001-006_taubert-wilhelm--piosenki-dla-mlodocianego-wieku-piotr-maszynski-6-kwiatek-polny.krn
!!!cenid: 18xx:4758
!!!COM: Taubert, Wilhelm
!!!COM-rismID: pe124431
!!!CDT: 1811/03/23-1891/01/07
!!!CNT: German
!!!GTL: Piosenki dla młodocianego wieku (Piotr Maszyński)
!!!OTL: 6. Kwiatek polny
!!!OMV: 006
!!!PDT: 1871
!!!AGN: Secular; Song; Children
!!!YEC: Copyright 2022 Narodowy Instytut Fryderyka Chopina (https://polishscores.org)
!!!YEM: License CC-BY-4.0 (https://creativecommons.org/licenses/by/4.0)
!!!SMS-siglum: PL-Wtm
!!!SMS-shelfmark: 670 śp 3678
!!!SMS-variant:
!!!SMS-altvar:
!!!SMS-shelfwork: 001-006 G
!!!NIFC-rismSourceID: 1001185478
!!!NIFC-rismChildID: 1001185478
!!!NIFC-islandoraID: pl-wtm:57754
!!!URL-pdf-islandora: https://repozytorium.nifc.pl/islandora/object/pl-wtm%3A57754/datastream/PDF/view
!!!URL-scan: https://polish.musicsources.pl/pl/lokalizacje/galeria/druki-muzyczne/19483/6 @EN{Scan on Polish Music Sources Website} @PL{Skany w portalu Dziedzictwo Muzyki Polskiej w otwartym dostępie}
!!!IIIF:
!!!ONB-nifc:
!!!AIN: 1 canto 1 piano
!!!key: a
**kern	**blank	**fing	**kern	**dynam	**kern	**text	**text	**text	**dynam
*part2	*	*	*part2	*part2	*part1	*part1	*part1	*part1	*part1
*staff3	*	*	*staff2	*staff2/3	*staff1	*staff1	*staff1	*staff1	*
*IGacmp	*	*	*IGacmp	*	*	*	*	*	*
*ICklav	*	*	*ICklav	*	*ICvox	*	*	*	*
*Ipiano	*	*	*Ipiano	*	*Icanto	*	*	*	*
*I"Fortepian.	*	*	*I"Fortepian.	*	*I"Śpiew.	*	*	*	*
*I'	*	*	*I'	*	*I'	*	*	*	*
*clefF4	*	*	*clefG2	*	*clefG2	*	*	*	*
*k[]	*	*	*k[]	*	*k[]	*	*	*	*
*a:	*	*	*a:	*	*a:	*	*	*	*
*M3/4	*	*	*M3/4	*	*M3/4	*	*	*	*
*>[A,B,B1,B,B1,B,B2]	*>[A,B,B1,B,B1,B,B2]	*>[A,B,B1,B,B1,B,B2]	*>[A,B,B1,B,B1,B,B2]	*>[A,B,B1,B,B1,B,B2]	*>[A,B,B1,B,B1,B,B2]	*>[A,B,B1,B,B1,B,B2]	*>[A,B,B1,B,B1,B,B2]	*>[A,B,B1,B,B1,B,B2]	*>[A,B,B1,B,B1,B,B2]
*>A	*>A	*>A	*>A	*>A	*>A	*>A	*>A	*>A	*>A
!!LO:TX:a:B:t=Andante tranquillo.
8r	.	.	(8ee\L	p	8r	.	.	.	.
4r	.	.	8dd#X\	.	4r	.	.	.	.
.	.	.	8ee\J	.	.	.	.	.	.
=1	=1	=1	=1	=1	=1	=1	=1	=1	=1
2.r	.	.	16ddn\LL	.	2.r	.	.	.	.
.	.	.	16cc\	.	.	.	.	.	.
.	.	.	16b\	.	.	.	.	.	.
.	.	.	16cc\JJ	.	.	.	.	.	.
.	.	.	8a/L	.	.	.	.	.	.
.	.	.	8cc/	.	.	.	.	.	.
.	.	.	8b/	.	.	.	.	.	.
.	.	.	8e/J	.	.	.	.	.	.
=2	=2	=2	=2	=2	=2	=2	=2	=2	=2
4r	.	.	4.a/)	.	2.r	.	.	.	.
8r	.	.	.	.	.	.	.	.	.
!	!	!	!	!LO:DY:rj	!	!	!	!	!
8eL 8c\	.	.	(8aaL 8a\	sf	.	.	.	.	.
8d 8B\	.	.	8gg#X 8g#X\	.	.	.	.	.	.
8cJ 8A\	.	.	8aaJ 8a\)	.	.	.	.	.	.
=3!|:	=3!|:	=3!|:	=3!|:	=3!|:	=3!|:	=3!|:	=3!|:	=3!|:	=3!|:
*	*	*	*^	*	*	*	*	*	*
*>B	*>B	*>B	*>B	*>B	*>B	*>B	*>B	*>B	*>B	*>B
2B 2G#X\	.	.	[2.ee [<2.e/	8rb	.	2.r	.	.	.	.
.	.	.	.	8b\L	.	.	.	.	.	.
.	.	.	.	8dd\	.	.	.	.	.	.
.	.	.	.	8b\	.	.	.	.	.	.
4c 4A\	.	.	.	8cc\	.	.	.	.	.	.
.	.	.	.	8a\J	.	.	.	.	.	.
=4	=4	=4	=4	=4	=4	=4	=4	=4	=4	=4
*^	*	*	*	*	*	*	*	*	*	*
4B/	2E\	.	.	2ee] 2e/]	4g#X\	.	4r	.	.	.	.
4G#X/	.	.	.	.	4b\	.	4r	.	.	.	.
!	!	!	!	!	!	!	!	!	!	!	!LO:DY:a
4r	4ryy	.	.	4e/	4ryy	p	4e/	O	Przez	O	p
*v	*v	*	*	*	*	*	*	*	*	*	*
*	*	*	*v	*v	*	*	*	*	*	*
!!LO:LB:g=original
=5	=5	=5	=5	=5	=5	=5	=5	=5	=5
2.r	.	.	8aL 8c/	.	8a/	kwiat-	ro-	kwiat-	.
.	.	.	8b 8e/	.	8b\	-ku,	-sy	-ku	.
.	.	.	8cc 8a/	.	8cc\	pol-	łzę	daj	.
.	.	.	8b 8e/	.	8b\	-ny	spo-	się	.
.	.	.	8a 8f/	.	8a/	po-	-glą-	uszcz-	.
.	.	.	8bJ 8d/	.	8b\	-śród	-dasz	-knąć,	.
=6	=6	=6	=6	=6	=6	=6	=6	=6	=6
8r	.	.	2e/	.	2e/	zbóż,	w krąg,	daj,	.
(8E\L	.	.	.	.	.	.	.	.	.
8B\	.	.	.	.	.	.	.	.	.
8G#X\J)	.	.	.	.	.	.	.	.	.
8r	.	.	4e 4d/	.	4e/	jak	sło-	z pra-	.
8E\	.	.	.	.	.	.	.	.	.
=7	=7	=7	=7	=7	=7	=7	=7	=7	=7
8r	.	.	8eL 8d/	.	8e/	gwiaz-	-ne-	-gnie-	.
*	*	*below	*	*	*	*	*	*	*
(8E/L	.	1	8g#XJ 8B/	.	8g#X/	-dka	-czny	-nia	.
8G#X/	.	2	4.b 4.d/	.	4.b\	na	po-	ja	.
8E/	.	.	.	.	.	.	.	.	.
8EE/	.	.	.	.	.	.	.	.	.
8E/J)	.	.	8cc 8e/	.	8cc\	nie-	-dzi-	ci	.
=8	=8	=8	=8	=8	=8	=8	=8	=8	=8
8r	.	.	8bL 8d/	.	8b\	-bio-	-wia-	nie	.
(8AA/L	.	.	8aJ 8c/	.	8a/	-sów	-jąc	dam	.
8E/	.	.	4a 4c/	.	4a/	tle,	świat,	schnąć,	.
8AA/J)	.	.	.	.	.	.	.	.	.
8r	.	.	4cc 4e/	.	4cc\	ty	u-	lecz	.
8AA/	.	.	.	.	.	.	.	.	.
!!LO:LB:g=original
=9	=9	=9	=9	=9	=9	=9	=9	=9	=9
!	!	!	!	!	!	!	!	!	!LO:HP:a
2GG 2CC/	.	.	4.ee 4.g\	.	4.ee\	do	-sia-	mo-	>
.	.	.	8ccL 8e/	.	8cc\	mnie	-ny	im	]
4GG/	.	.	8b 8d/	.	8b\	śmie-	kwie-	tyl-	.
.	.	.	8bJ 8d/	.	8b\	-jesz	-ciem	-ko	.
=10	=10	=10	=10	=10	=10	=10	=10	=10	=10
2AA 2DD/	.	.	4.dd 4.f/	<	4.dd\	się	szmat	bądź	.
!	!	!	!	!	!	!	!	!	!LO:HP:a
.	.	.	.	.	.	.	.	.	<
.	.	.	8ddL 8f\	.	8dd\	z da-	zie-	przez	.
4c#X 4A\	.	.	8ff 8a\	.	8ff\	-le-	-lo-	ca-	.
.	.	.	8eeJ 8g\	[[	8ee\	-ka	-nych	-ły	.
.	.	.	.	.	.	.	.	.	[
=11	=11	=11	=11	=11	=11	=11	=11	=11	=11
4.A 4.D\	.	.	4.dd 4.f/	.	4.dd\	już,	łąk,	maj,	.
8F\	.	.	8bL 8d/	.	8b\	z da-	zie-	przez	.
4G#X 4E\	.	.	8b 8d/	.	8b\	-le-	-lo-	ca-	.
.	.	.	8ccJ 8e/	.	8cc\	-ka	-nych	-ły	.
=12	=12	=12	=12	=12	=12	=12	=12	=12	=12
8r	.	.	4.a 4.c/	.	4.a/	już,	łąk,	maj,	.
(8AA/	.	.	.	pp	.	.	.	.	.
4F\	.	.	.	.	.	.	.	.	.
!	!	!	!	!	!	!	!	!	!LO:DY:a
.	.	.	8bL 8d/	.	8b\	z da-	zie-	przez	pp
4G#X 4E\)	.	.	8b 8d/	.	8b\	-le-	-lo-	ca-	.
.	.	.	8ccJ 8e/	.	8cc\	-ka	-nych	-ły	.
!!LO:LB:g=original
=13	=13	=13	=13	=13	=13	=13	=13	=13	=13
!!LO:TX:a:B:t=1. 2.
*>B1	*>B1	*>B1	*>B1	*>B1	*>B1	*>B1	*>B1	*>B1	*>B1
4.E 4.AA/	.	.	4.a 4.c/	.	2a/	już.	łąk.	.	.
!	!	!	!	!LO:DY:rj	!	!	!	!	!
(8eL 8c\	.	.	(8aaL 8a\	sf	.	.	.	.	.
8d 8B\	.	.	8gg#X 8g#X\	.	4r	.	.	.	.
8cJ 8A\)	.	.	8aaJ 8a\)	.	.	.	.	.	.
=14	=14	=14	=14	=14	=14	=14	=14	=14	=14
*	*	*	*^	*	*	*	*	*	*
2B 2G#X\	.	.	[2.ee [<2.e/	8rb	.	2.r	.	.	.	.
.	.	.	.	8b\L	.	.	.	.	.	.
.	.	.	.	8dd\	.	.	.	.	.	.
.	.	.	.	8b\	.	.	.	.	.	.
4c 4A\	.	.	.	8cc\	.	.	.	.	.	.
.	.	.	.	8a\J	.	.	.	.	.	.
=15	=15	=15	=15	=15	=15	=15	=15	=15	=15	=15
*^	*	*	*	*	*	*	*	*	*	*
8B/L	4.E\	.	.	4.ee] 4.e/]	8g#X\L	.	2.r	.	.	.	.
8A/	.	.	.	.	8a\	.	.	.	.	.	.
8G#X/J	.	.	.	.	8b\J	.	.	.	.	.	.
!	!	!	!	!	!	!LO:DY:rj	!	!	!	!	!
(8eL 8c\	4.ryy	.	.	(8aaL 8a\	4.ryy	sf	.	.	.	.	.
8d 8B\	.	.	.	8gg#X 8g#X\	.	.	.	.	.	.	.
8cJ 8A\)	.	.	.	8aaJ 8a\)	.	.	.	.	.	.	.
*v	*v	*	*	*	*	*	*	*	*	*	*
*	*	*	*v	*v	*	*	*	*	*	*
=16:|!	=16:|!	=16:|!	=16:|!	=16:|!	=16:|!	=16:|!	=16:|!	=16:|!	=16:|!
!!LO:TX:a:B:t=3.
*>B2	*>B2	*>B2	*>B2	*>B2	*>B2	*>B2	*>B2	*>B2	*>B2
4.E 4.AA/	.	.	4.a 4.c/	.	2a/	maj!	.	.	.
8r	.	.	(8ee\L	.	.	.	.	.	.
4r	.	.	8dd#X\	.	4r	.	.	.	.
.	.	.	8ee\J	.	.	.	.	.	.
=17	=17	=17	=17	=17	=17	=17	=17	=17	=17
4r	.	.	16ddn\LL	.	2.r	.	.	.	.
.	.	.	16cc\	.	.	.	.	.	.
.	.	.	16b\	.	.	.	.	.	.
.	.	.	16cc\JJ	.	.	.	.	.	.
4r	.	.	8a/)	.	.	.	.	.	.
.	.	.	8r	.	.	.	.	.	.
8E 8EE'/	.	.	8g#X 8e 8B'/	.	.	.	.	.	.
8r	.	.	8r	.	.	.	.	.	.
=18	=18	=18	=18	=18	=18	=18	=18	=18	=18
2AA 2AAA/	.	.	2a 2e 2c/	.	4r	.	.	.	.
.	.	.	.	.	4r	.	.	.	.
==	==	==	==	==	==	==	==	==	==
*-	*-	*-	*-	*-	*-	*-	*-	*-	*-
!!!system-decoration: s1{(s2,s3)}
!!!RDF**kern: > = above
!!!RDF**kern: < = below
!!!RDF**kern: N = linked
!!!ENC: Andrzej Gręziak
!!!EED: Katarzyna Serwa
!!!END: 2025-03-25
!!!EEV: 2025-03-27
